src/icons/services/social-commerce.svg

<svg width="52" height="52" viewBox="0 0 52 52" fill="none" xmlns="http://www.w3.org/2000/svg">
<path d="M26 11.9167C28.0112 11.9167 29.9401 12.7157 31.3622 14.1379C32.7844 15.56 33.5833 17.4889 33.5833 19.5001C33.5833 21.5113 32.7844 23.4402 31.3622 24.8623C29.9401 26.2845 28.0112 27.0834 26 27.0834C23.9888 27.0834 22.0599 26.2845 20.6378 24.8623C19.2156 23.4402 18.4167 21.5113 18.4167 19.5001C18.4167 17.4889 19.2156 15.56 20.6378 14.1379C22.0599 12.7157 23.9888 11.9167 26 11.9167ZM10.8333 17.3334C12.0467 17.3334 13.1733 17.6584 14.1483 18.2434C13.8233 21.3417 14.7333 24.4184 16.5967 26.8234C15.5133 28.9034 13.3467 30.3334 10.8333 30.3334C9.10943 30.3334 7.45613 29.6486 6.23714 28.4296C5.01815 27.2106 4.33333 25.5573 4.33333 23.8334C4.33333 22.1095 5.01815 20.4562 6.23714 19.2372C7.45613 18.0182 9.10943 17.3334 10.8333 17.3334ZM41.1667 17.3334C42.8906 17.3334 44.5439 18.0182 45.7629 19.2372C46.9818 20.4562 47.6667 22.1095 47.6667 23.8334C47.6667 25.5573 46.9818 27.2106 45.7629 28.4296C44.5439 29.6486 42.8906 30.3334 41.1667 30.3334C38.6533 30.3334 36.4867 28.9034 35.4033 26.8234C37.2667 24.4184 38.1767 21.3417 37.8517 18.2434C38.8267 17.6584 39.9533 17.3334 41.1667 17.3334ZM11.9167 39.5417C11.9167 35.0567 18.2217 31.4167 26 31.4167C33.7783 31.4167 40.0833 35.0567 40.0833 39.5417V43.3334H11.9167V39.5417ZM0 43.3334V40.0834C0 37.0717 4.095 34.5367 9.64167 33.8001C8.36333 35.2734 7.58333 37.3101 7.58333 39.5417V43.3334H0ZM52 43.3334H44.4167V39.5417C44.4167 37.3101 43.6367 35.2734 42.3583 33.8001C47.905 34.5367 52 37.0717 52 40.0834V43.3334Z" fill="#9D74D3"/>
</svg>

<svg xmlns="http://www.w3.org/2000/svg" width="52" height="52" fill="none"  ><path d="M26 11.917c2.011 0 3.94.799 5.362 2.221s2.221 3.351 2.221 5.362-.799 3.94-2.221 5.362-3.351 2.221-5.362 2.221-3.94-.799-5.362-2.221-2.221-3.351-2.221-5.362.799-3.94 2.221-5.362 3.351-2.221 5.362-2.221zm-15.167 5.417c1.213 0 2.34.325 3.315.91-.325 3.098.585 6.175 2.448 8.58-1.083 2.08-3.25 3.51-5.763 3.51a6.5 6.5 0 0 1-6.5-6.5 6.5 6.5 0 0 1 6.5-6.5zm30.333 0a6.5 6.5 0 0 1 6.5 6.5 6.5 6.5 0 0 1-6.5 6.5c-2.513 0-4.68-1.43-5.763-3.51 1.863-2.405 2.773-5.482 2.448-8.58.975-.585 2.102-.91 3.315-.91zm-29.25 22.208c0-4.485 6.305-8.125 14.083-8.125s14.083 3.64 14.083 8.125v3.792H11.917v-3.792zM0 43.333v-3.25c0-3.012 4.095-5.547 9.642-6.283-1.278 1.473-2.058 3.51-2.058 5.742v3.792H0zm52 0h-7.583v-3.792c0-2.232-.78-4.268-2.058-5.742 5.547.737 9.642 3.272 9.642 6.283v3.25z" fill="#9d74d3"/></svg>
